X:1
T:Happy Moments
C:Pascale Rubens
M:5/4
L:1/4
K:Am
"Am"cBABc|"F"ecBA/B/c|"C"efedc|"Em"efeB2|
"Am"cBABc|"F"ecBA/B/c|"C"efedc|"Em"B2Bcd::
"Am"A3[Ac]2|"F"[Ad]2edc|"G"G3[Gd]2|"Em"[Ge]2dcB|
"Am"A3[Ac]2|"F"[Ad]2edc|"G"Bcdec|"Em"B3-B2:|